X: 400
T:Kitty Nowlan
M:3/4
L:1/8
B:O'Neill's 400
N:"Tenderly."
N:"2nd Setting."
N:All ornaments (~) are turns.
N:"collected by F. O'Neill"
Z:Transcribed by Chris Falt, cfalt@trytel.com
K:Dm
fe|d2A2.G2|GFE DEFG|A2fedc|cd4fe|
d2A2G2|GFE .D.E.F.G|A2fdec|ed4||
de|~fga2gf|~efg2ag|fe~d2ec|A4fe|
d2A2G2|GFE .D.E.F.G|A2fdec|ed4||
